src/assets/img/backupWallet/backup.svg

<svg fill="none" height="199" viewBox="0 0 208 199" width="208" xmlns="http://www.w3.org/2000/svg" xmlns:xlink="http://www.w3.org/1999/xlink"><linearGradient id="a" gradientUnits="userSpaceOnUse" x1="72.2744" x2="147.58" y1="186.984" y2="186.984"><stop offset="0" stop-color="#f2a900"/><stop offset="1" stop-color="#f9d277"/></linearGradient><linearGradient id="b" gradientUnits="userSpaceOnUse" x1="171.294" x2="60.7741" y1="20.1888" y2="146.621"><stop offset=".0001" stop-color="#a2acc8"/><stop offset="1" stop-color="#7b87ad"/></linearGradient><path clip-rule="evenodd" d="m90.5399 185.782c0 4.114-3.3357 7.45-7.4504 7.45s-7.4504-3.336-7.4504-7.45c0-4.115 3.3357-7.451 7.4504-7.451s7.4504 3.336 7.4504 7.451zm3.2988 1.201c-.5975 5.408-5.1821 9.614-10.7492 9.614-5.973 0-10.8151-4.842-10.8151-10.815s4.8421-10.815 10.8151-10.815c5.2321 0 9.5964 3.715 10.5987 8.651h53.8918v3.365h-3.846v12.018h-3.365v-12.018h-2.402v12.018h-3.364v-12.018z" fill="url(#a)" fill-rule="evenodd"/><g fill="#4c5187"><circle cx="166.007" cy="69.0957" r=".902241" transform="matrix(0 -1 1 0 96.9113 235.1027)"/><circle cx="193.284" cy="69.0957" r=".902241" transform="matrix(0 -1 1 0 124.1883 262.3797)"/><circle cx="166.007" cy="55.457" r=".902241" transform="matrix(0 -1 1 0 110.55 221.464)"/><circle cx="193.284" cy="55.457" r=".902241" transform="matrix(0 -1 1 0 137.827 248.741)"/><circle cx="166.007" cy="41.8183" r=".902241" transform="matrix(0 -1 1 0 124.1887 207.8253)"/><circle cx="193.284" cy="41.8183" r=".902241" transform="matrix(0 -1 1 0 151.4657 235.1023)"/><circle cx="166.007" cy="28.1806" r=".902241" transform="matrix(0 -1 1 0 137.8264 194.1876)"/><circle cx="193.284" cy="28.1806" r=".902241" transform="matrix(0 -1 1 0 165.1034 221.4646)"/><circle cx="166.007" cy="41.8183" r=".902241" transform="matrix(0 -1 1 0 124.1887 207.8253)"/><circle cx="193.284" cy="41.8183" r=".902241" transform="matrix(0 -1 1 0 151.4657 235.1023)"/><circle cx="166.007" cy="14.542" r=".902241" transform="matrix(0 -1 1 0 151.465 180.549)"/><circle cx="193.284" cy="14.542" r=".902241" transform="matrix(0 -1 1 0 178.742 207.826)"/><circle cx="166.007" cy="28.1806" r=".902241" transform="matrix(0 -1 1 0 137.8264 194.1876)"/><circle cx="193.284" cy="28.1806" r=".902241" transform="matrix(0 -1 1 0 165.1034 221.4646)"/><circle cx="166.007" cy=".902203" r=".902241" transform="matrix(0 -1 1 0 165.104797 166.909203)"/><circle cx="193.284" cy=".902203" r=".902241" transform="matrix(0 -1 1 0 192.381797 194.186203)"/><circle cx="179.644" cy="69.0957" r=".902241" transform="matrix(0 -1 1 0 110.5483 248.7397)"/><circle cx="206.921" cy="69.0957" r=".902241" transform="matrix(0 -1 1 0 137.8253 276.0167)"/><circle cx="179.644" cy="55.457" r=".902241" transform="matrix(0 -1 1 0 124.187 235.101)"/><circle cx="206.921" cy="55.457" r=".902241" transform="matrix(0 -1 1 0 151.464 262.378)"/><circle cx="179.644" cy="41.8183" r=".902241" transform="matrix(0 -1 1 0 137.8257 221.4623)"/><circle cx="206.921" cy="41.8183" r=".902241" transform="matrix(0 -1 1 0 165.1027 248.7393)"/><circle cx="179.644" cy="28.1806" r=".902241" transform="matrix(0 -1 1 0 151.4634 207.8246)"/><circle cx="206.921" cy="28.1806" r=".902241" transform="matrix(0 -1 1 0 178.7404 235.1016)"/><circle cx="179.644" cy="41.8183" r=".902241" transform="matrix(0 -1 1 0 137.8257 221.4623)"/><circle cx="206.921" cy="41.8183" r=".902241" transform="matrix(0 -1 1 0 165.1027 248.7393)"/><circle cx="179.644" cy="14.542" r=".902241" transform="matrix(0 -1 1 0 165.102 194.186)"/><circle cx="206.921" cy="14.542" r=".902241" transform="matrix(0 -1 1 0 192.379 221.463)"/><circle cx="179.644" cy="28.1806" r=".902241" transform="matrix(0 -1 1 0 151.4634 207.8246)"/><circle cx="206.921" cy="28.1806" r=".902241" transform="matrix(0 -1 1 0 178.7404 235.1016)"/><circle cx="179.644" cy=".902203" r=".902241" transform="matrix(0 -1 1 0 178.741797 180.546203)"/><circle cx="206.921" cy=".902203" r=".902241" transform="matrix(0 -1 1 0 206.018797 207.823203)"/><circle cx="69.2687" cy="166.021" r=".902241" transform="matrix(-1 0 0 -1 138.5374 332.042)"/><circle cx="69.2687" cy="138.744" r=".902241" transform="matrix(-1 0 0 -1 138.5374 277.488)"/><circle cx="55.6305" cy="166.021" r=".902241" transform="matrix(-1 0 0 -1 111.261 332.042)"/><circle cx="55.6305" cy="138.744" r=".902241" transform="matrix(-1 0 0 -1 111.261 277.488)"/><circle cx="41.9913" cy="166.021" r=".902241" transform="matrix(-1 0 0 -1 83.9826 332.042)"/><circle cx="41.9913" cy="138.744" r=".902241" transform="matrix(-1 0 0 -1 83.9826 277.488)"/><circle cx="28.3541" cy="166.021" r=".902241" transform="matrix(-1 0 0 -1 56.7082 332.042)"/><circle cx="28.3541" cy="138.744" r=".902241" transform="matrix(-1 0 0 -1 56.7082 277.488)"/><circle cx="41.9913" cy="166.021" r=".902241" transform="matrix(-1 0 0 -1 83.9826 332.042)"/><circle cx="41.9913" cy="138.744" r=".902241" transform="matrix(-1 0 0 -1 83.9826 277.488)"/><circle cx="14.7149" cy="166.021" r=".902241" transform="matrix(-1 0 0 -1 29.4298 332.042)"/><circle cx="14.7149" cy="138.744" r=".902241" transform="matrix(-1 0 0 -1 29.4298 277.488)"/><circle cx="28.3541" cy="166.021" r=".902241" transform="matrix(-1 0 0 -1 56.7082 332.042)"/><circle cx="28.3541" cy="138.744" r=".902241" transform="matrix(-1 0 0 -1 56.7082 277.488)"/><circle cx="1.07481" cy="166.021" r=".902241" transform="matrix(-1 0 0 -1 2.14962 332.042)"/><circle cx="1.07481" cy="138.744" r=".902241" transform="matrix(-1 0 0 -1 2.14962 277.488)"/><circle cx="69.2687" cy="152.384" r=".902241" transform="matrix(-1 0 0 -1 138.5374 304.768)"/><circle cx="69.2687" cy="125.106" r=".902241" transform="matrix(-1 0 0 -1 138.5374 250.212)"/><circle cx="55.6305" cy="152.384" r=".902241" transform="matrix(-1 0 0 -1 111.261 304.768)"/><circle cx="55.6305" cy="125.106" r=".902241" transform="matrix(-1 0 0 -1 111.261 250.212)"/><circle cx="41.9913" cy="152.384" r=".902241" transform="matrix(-1 0 0 -1 83.9826 304.768)"/><circle cx="41.9913" cy="125.106" r=".902241" transform="matrix(-1 0 0 -1 83.9826 250.212)"/><circle cx="28.3541" cy="152.384" r=".902241" transform="matrix(-1 0 0 -1 56.7082 304.768)"/><circle cx="28.3541" cy="125.106" r=".902241" transform="matrix(-1 0 0 -1 56.7082 250.212)"/><circle cx="41.9913" cy="152.384" r=".902241" transform="matrix(-1 0 0 -1 83.9826 304.768)"/><circle cx="41.9913" cy="125.106" r=".902241" transform="matrix(-1 0 0 -1 83.9826 250.212)"/><circle cx="14.7149" cy="152.384" r=".902241" transform="matrix(-1 0 0 -1 29.4298 304.768)"/><circle cx="14.7149" cy="125.106" r=".902241" transform="matrix(-1 0 0 -1 29.4298 250.212)"/><circle cx="28.3541" cy="152.384" r=".902241" transform="matrix(-1 0 0 -1 56.7082 304.768)"/><circle cx="28.3541" cy="125.106" r=".902241" transform="matrix(-1 0 0 -1 56.7082 250.212)"/><circle cx="1.07481" cy="152.384" r=".902241" transform="matrix(-1 0 0 -1 2.14962 304.768)"/><circle cx="1.07481" cy="125.106" r=".902241" transform="matrix(-1 0 0 -1 2.14962 250.212)"/></g><path d="m50.1631 27.8797c0-4.2476 3.4433-7.6909 7.6908-7.6909h105.7491c4.247 0 7.691 3.4433 7.691 7.6909v106.0323c0 4.248-3.444 7.691-7.691 7.691h-105.7491c-4.2475 0-7.6908-3.443-7.6908-7.691z" fill="url(#b)"/><path d="m56.0718 50.9004c0-1.2418 1.0066-2.2484 2.2484-2.2484h2.2484v14.6147h-2.2484c-1.2418 0-2.2484-1.0067-2.2484-2.2484z" fill="#12151e"/><path d="m56.0718 92.8685c0-1.2417 1.0066-2.2484 2.2484-2.2484h2.2484v14.6149h-2.2484c-1.2418 0-2.2484-1.007-2.2484-2.249z" fill="#12151e"/><path d="m60.5454 38.4545c0-3.8228 3.099-6.9217 6.9218-6.9217h86.5218c3.823 0 6.922 3.0989 6.922 6.9217v76.9085c0 3.822-3.099 6.921-6.922 6.921h-86.5218c-3.8228 0-6.9218-3.099-6.9218-6.921z" stroke="#12151e" stroke-width="1.53816"/><path d="m108.208 97.2154c9.546 0 17.284-7.7387 17.284-17.2847 0-9.5461-7.738-17.2847-17.284-17.2847-9.5465 0-17.2851 7.7386-17.2851 17.2847 0 9.546 7.7386 17.2847 17.2851 17.2847z" fill="#12151e" fill-opacity=".5"/><path d="m111.719 93.9831c9.546 0 17.284-7.7387 17.284-17.2847 0-9.5461-7.738-17.2847-17.284-17.2847s-17.2849 7.7386-17.2849 17.2847c0 9.546 7.7389 17.2847 17.2849 17.2847z" fill="#fff" fill-opacity=".6"/><path d="m113.76 77.399c.832-.4534 1.489-1.1709 1.868-2.0394.378-.8684.457-1.8381.223-2.7561-.234-.9181-.767-1.732-1.515-2.3133s-1.668-.8969-2.616-.8969c-.947 0-1.867.3156-2.615.8969s-1.282 1.3952-1.515 2.3133c-.234.918-.156 1.8877.223 2.7561.378.8685 1.035 1.586 1.867 2.0394l-2.101 4.9021c-.08.185-.114.3871-.097.5883.017.2011.083.3949.193.564.11.169.261.3081.438.4046s.376.1474.578.1482h6.059c.202-.0008.4-.0517.577-.1482.178-.0965.328-.2356.438-.4046.111-.1691.177-.3629.194-.564.016-.2012-.017-.4033-.098-.5883z" fill="#12151e"/><path d="m50.1631 134.59h121.1309c0 4.778-3.874 8.652-8.653 8.652h-103.8257c-4.7785 0-8.6522-3.874-8.6522-8.652z" fill="#647094"/></svg>

<svg width="208" height="199" viewBox="0 0 208 199" fill="none" xmlns="http://www.w3.org/2000/svg">
<path fill-rule="evenodd" clip-rule="evenodd" d="M90.5399 185.782C90.5399 189.896 87.2042 193.232 83.0895 193.232C78.9748 193.232 75.6391 189.896 75.6391 185.782C75.6391 181.667 78.9748 178.331 83.0895 178.331C87.2042 178.331 90.5399 181.667 90.5399 185.782ZM93.8387 186.983C93.2412 192.391 88.6566 196.597 83.0895 196.597C77.1165 196.597 72.2744 191.755 72.2744 185.782C72.2744 179.809 77.1165 174.967 83.0895 174.967C88.3216 174.967 92.6859 178.682 93.6882 183.618L147.58 183.618V186.983H143.734L143.734 199.001L140.369 199.001V186.983H137.967V199.001H134.603V186.983L93.8387 186.983Z" fill="url(#paint0_linear_364_37529)"/>
<circle cx="166.007" cy="69.0957" r="0.902241" transform="rotate(-90 166.007 69.0957)" fill="#4C5187"/>
<circle cx="193.284" cy="69.0957" r="0.902241" transform="rotate(-90 193.284 69.0957)" fill="#4C5187"/>
<circle cx="166.007" cy="55.457" r="0.902241" transform="rotate(-90 166.007 55.457)" fill="#4C5187"/>
<circle cx="193.284" cy="55.457" r="0.902241" transform="rotate(-90 193.284 55.457)" fill="#4C5187"/>
<circle cx="166.007" cy="41.8183" r="0.902241" transform="rotate(-90 166.007 41.8183)" fill="#4C5187"/>
<circle cx="193.284" cy="41.8183" r="0.902241" transform="rotate(-90 193.284 41.8183)" fill="#4C5187"/>
<circle cx="166.007" cy="28.1806" r="0.902241" transform="rotate(-90 166.007 28.1806)" fill="#4C5187"/>
<circle cx="193.284" cy="28.1806" r="0.902241" transform="rotate(-90 193.284 28.1806)" fill="#4C5187"/>
<circle cx="166.007" cy="41.8183" r="0.902241" transform="rotate(-90 166.007 41.8183)" fill="#4C5187"/>
<circle cx="193.284" cy="41.8183" r="0.902241" transform="rotate(-90 193.284 41.8183)" fill="#4C5187"/>
<circle cx="166.007" cy="14.542" r="0.902241" transform="rotate(-90 166.007 14.542)" fill="#4C5187"/>
<circle cx="193.284" cy="14.542" r="0.902241" transform="rotate(-90 193.284 14.542)" fill="#4C5187"/>
<circle cx="166.007" cy="28.1806" r="0.902241" transform="rotate(-90 166.007 28.1806)" fill="#4C5187"/>
<circle cx="193.284" cy="28.1806" r="0.902241" transform="rotate(-90 193.284 28.1806)" fill="#4C5187"/>
<circle cx="166.007" cy="0.902203" r="0.902241" transform="rotate(-90 166.007 0.902203)" fill="#4C5187"/>
<circle cx="193.284" cy="0.902203" r="0.902241" transform="rotate(-90 193.284 0.902203)" fill="#4C5187"/>
<circle cx="179.644" cy="69.0957" r="0.902241" transform="rotate(-90 179.644 69.0957)" fill="#4C5187"/>
<circle cx="206.921" cy="69.0957" r="0.902241" transform="rotate(-90 206.921 69.0957)" fill="#4C5187"/>
<circle cx="179.644" cy="55.457" r="0.902241" transform="rotate(-90 179.644 55.457)" fill="#4C5187"/>
<circle cx="206.921" cy="55.457" r="0.902241" transform="rotate(-90 206.921 55.457)" fill="#4C5187"/>
<circle cx="179.644" cy="41.8183" r="0.902241" transform="rotate(-90 179.644 41.8183)" fill="#4C5187"/>
<circle cx="206.921" cy="41.8183" r="0.902241" transform="rotate(-90 206.921 41.8183)" fill="#4C5187"/>
<circle cx="179.644" cy="28.1806" r="0.902241" transform="rotate(-90 179.644 28.1806)" fill="#4C5187"/>
<circle cx="206.921" cy="28.1806" r="0.902241" transform="rotate(-90 206.921 28.1806)" fill="#4C5187"/>
<circle cx="179.644" cy="41.8183" r="0.902241" transform="rotate(-90 179.644 41.8183)" fill="#4C5187"/>
<circle cx="206.921" cy="41.8183" r="0.902241" transform="rotate(-90 206.921 41.8183)" fill="#4C5187"/>
<circle cx="179.644" cy="14.542" r="0.902241" transform="rotate(-90 179.644 14.542)" fill="#4C5187"/>
<circle cx="206.921" cy="14.542" r="0.902241" transform="rotate(-90 206.921 14.542)" fill="#4C5187"/>
<circle cx="179.644" cy="28.1806" r="0.902241" transform="rotate(-90 179.644 28.1806)" fill="#4C5187"/>
<circle cx="206.921" cy="28.1806" r="0.902241" transform="rotate(-90 206.921 28.1806)" fill="#4C5187"/>
<circle cx="179.644" cy="0.902203" r="0.902241" transform="rotate(-90 179.644 0.902203)" fill="#4C5187"/>
<circle cx="206.921" cy="0.902203" r="0.902241" transform="rotate(-90 206.921 0.902203)" fill="#4C5187"/>
<circle cx="69.2687" cy="166.021" r="0.902241" transform="rotate(180 69.2687 166.021)" fill="#4C5187"/>
<circle cx="69.2687" cy="138.744" r="0.902241" transform="rotate(180 69.2687 138.744)" fill="#4C5187"/>
<circle cx="55.6305" cy="166.021" r="0.902241" transform="rotate(180 55.6305 166.021)" fill="#4C5187"/>
<circle cx="55.6305" cy="138.744" r="0.902241" transform="rotate(180 55.6305 138.744)" fill="#4C5187"/>
<circle cx="41.9913" cy="166.021" r="0.902241" transform="rotate(180 41.9913 166.021)" fill="#4C5187"/>
<circle cx="41.9913" cy="138.744" r="0.902241" transform="rotate(180 41.9913 138.744)" fill="#4C5187"/>
<circle cx="28.3541" cy="166.021" r="0.902241" transform="rotate(180 28.3541 166.021)" fill="#4C5187"/>
<circle cx="28.3541" cy="138.744" r="0.902241" transform="rotate(180 28.3541 138.744)" fill="#4C5187"/>
<circle cx="41.9913" cy="166.021" r="0.902241" transform="rotate(180 41.9913 166.021)" fill="#4C5187"/>
<circle cx="41.9913" cy="138.744" r="0.902241" transform="rotate(180 41.9913 138.744)" fill="#4C5187"/>
<circle cx="14.7149" cy="166.021" r="0.902241" transform="rotate(180 14.7149 166.021)" fill="#4C5187"/>
<circle cx="14.7149" cy="138.744" r="0.902241" transform="rotate(180 14.7149 138.744)" fill="#4C5187"/>
<circle cx="28.3541" cy="166.021" r="0.902241" transform="rotate(180 28.3541 166.021)" fill="#4C5187"/>
<circle cx="28.3541" cy="138.744" r="0.902241" transform="rotate(180 28.3541 138.744)" fill="#4C5187"/>
<circle cx="1.07481" cy="166.021" r="0.902241" transform="rotate(180 1.07481 166.021)" fill="#4C5187"/>
<circle cx="1.07481" cy="138.744" r="0.902241" transform="rotate(180 1.07481 138.744)" fill="#4C5187"/>
<circle cx="69.2687" cy="152.384" r="0.902241" transform="rotate(180 69.2687 152.384)" fill="#4C5187"/>
<circle cx="69.2687" cy="125.106" r="0.902241" transform="rotate(180 69.2687 125.106)" fill="#4C5187"/>
<circle cx="55.6305" cy="152.384" r="0.902241" transform="rotate(180 55.6305 152.384)" fill="#4C5187"/>
<circle cx="55.6305" cy="125.106" r="0.902241" transform="rotate(180 55.6305 125.106)" fill="#4C5187"/>
<circle cx="41.9913" cy="152.384" r="0.902241" transform="rotate(180 41.9913 152.384)" fill="#4C5187"/>
<circle cx="41.9913" cy="125.106" r="0.902241" transform="rotate(180 41.9913 125.106)" fill="#4C5187"/>
<circle cx="28.3541" cy="152.384" r="0.902241" transform="rotate(180 28.3541 152.384)" fill="#4C5187"/>
<circle cx="28.3541" cy="125.106" r="0.902241" transform="rotate(180 28.3541 125.106)" fill="#4C5187"/>
<circle cx="41.9913" cy="152.384" r="0.902241" transform="rotate(180 41.9913 152.384)" fill="#4C5187"/>
<circle cx="41.9913" cy="125.106" r="0.902241" transform="rotate(180 41.9913 125.106)" fill="#4C5187"/>
<circle cx="14.7149" cy="152.384" r="0.902241" transform="rotate(180 14.7149 152.384)" fill="#4C5187"/>
<circle cx="14.7149" cy="125.106" r="0.902241" transform="rotate(180 14.7149 125.106)" fill="#4C5187"/>
<circle cx="28.3541" cy="152.384" r="0.902241" transform="rotate(180 28.3541 152.384)" fill="#4C5187"/>
<circle cx="28.3541" cy="125.106" r="0.902241" transform="rotate(180 28.3541 125.106)" fill="#4C5187"/>
<circle cx="1.07481" cy="152.384" r="0.902241" transform="rotate(180 1.07481 152.384)" fill="#4C5187"/>
<circle cx="1.07481" cy="125.106" r="0.902241" transform="rotate(180 1.07481 125.106)" fill="#4C5187"/>
<path d="M50.1631 27.8797C50.1631 23.6321 53.6064 20.1888 57.8539 20.1888H163.603C167.85 20.1888 171.294 23.6321 171.294 27.8797V133.912C171.294 138.16 167.85 141.603 163.603 141.603H57.8539C53.6064 141.603 50.1631 138.16 50.1631 133.912V27.8797Z" fill="url(#paint1_linear_364_37529)"/>
<path d="M56.0718 50.9004C56.0718 49.6586 57.0784 48.652 58.3202 48.652H60.5686V63.2667H58.3202C57.0784 63.2667 56.0718 62.26 56.0718 61.0183V50.9004Z" fill="#12151E"/>
<path d="M56.0718 92.8685C56.0718 91.6268 57.0784 90.6201 58.3202 90.6201H60.5686V105.235H58.3202C57.0784 105.235 56.0718 104.228 56.0718 102.986V92.8685Z" fill="#12151E"/>
<path d="M60.5454 38.4545C60.5454 34.6317 63.6444 31.5328 67.4672 31.5328H153.989C157.812 31.5328 160.911 34.6317 160.911 38.4545V115.363C160.911 119.185 157.812 122.284 153.989 122.284H67.4672C63.6444 122.284 60.5454 119.185 60.5454 115.363V38.4545Z" stroke="#12151E" stroke-width="1.53816"/>
<path d="M108.208 97.2154C117.754 97.2154 125.492 89.4767 125.492 79.9307C125.492 70.3846 117.754 62.646 108.208 62.646C98.6615 62.646 90.9229 70.3846 90.9229 79.9307C90.9229 89.4767 98.6615 97.2154 108.208 97.2154Z" fill="#12151E" fill-opacity="0.5"/>
<path d="M111.719 93.9831C121.265 93.9831 129.003 86.2444 129.003 76.6984C129.003 67.1523 121.265 59.4137 111.719 59.4137C102.173 59.4137 94.4341 67.1523 94.4341 76.6984C94.4341 86.2444 102.173 93.9831 111.719 93.9831Z" fill="white" fill-opacity="0.6"/>
<path d="M113.76 77.399C114.592 76.9456 115.249 76.2281 115.628 75.3596C116.006 74.4912 116.085 73.5215 115.851 72.6035C115.617 71.6854 115.084 70.8715 114.336 70.2902C113.588 69.7089 112.668 69.3933 111.72 69.3933C110.773 69.3933 109.853 69.7089 109.105 70.2902C108.357 70.8715 107.823 71.6854 107.59 72.6035C107.356 73.5215 107.434 74.4912 107.813 75.3596C108.191 76.2281 108.848 76.9456 109.68 77.399L107.579 82.3011C107.499 82.4861 107.465 82.6882 107.482 82.8894C107.499 83.0905 107.565 83.2843 107.675 83.4534C107.785 83.6224 107.936 83.7615 108.113 83.858C108.29 83.9545 108.489 84.0054 108.691 84.0062H114.75C114.952 84.0054 115.15 83.9545 115.327 83.858C115.505 83.7615 115.655 83.6224 115.765 83.4534C115.876 83.2843 115.942 83.0905 115.959 82.8894C115.975 82.6882 115.942 82.4861 115.861 82.3011L113.76 77.399Z" fill="#12151E"/>
<path d="M50.1631 134.59H171.294C171.294 139.368 167.42 143.242 162.641 143.242H58.8153C54.0368 143.242 50.1631 139.368 50.1631 134.59Z" fill="#647094"/>
<defs>
<linearGradient id="paint0_linear_364_37529" x1="72.2744" y1="186.984" x2="147.58" y2="186.984" gradientUnits="userSpaceOnUse">
<stop stop-color="#F2A900"/>
<stop offset="1" stop-color="#F9D277"/>
</linearGradient>
<linearGradient id="paint1_linear_364_37529" x1="171.294" y1="20.1888" x2="60.7741" y2="146.621" gradientUnits="userSpaceOnUse">
<stop offset="0.0001" stop-color="#A2ACC8"/>
<stop offset="1" stop-color="#7B87AD"/>
</linearGradient>
</defs>
</svg>
